; generated by PrusaSlicer 2.6.0+MacOS-arm64 on 2023-07-14 at 20:16:52 UTC

; 

; external perimeters extrusion width = 0.45mm
; perimeters extrusion width = 0.45mm
; infill extrusion width = 0.45mm
; solid infill extrusion width = 0.50mm
; top infill extrusion width = 0.45mm
; first layer extrusion width = 0.48mm

;TYPE:Custom
G90                                        ; use absolute coordinates
M83                                        ; extruder relative mode
M104 S150                                  ; set extruder temp
M140 S60                                   ; set bed temp
M190 S60                                   ; wait for bed temp
M109 S220                                  ; wait for extruder temp
G28                                        ; move X/Y/Z to min endstops
M420 S1                                    ; load saved mesh level data
G1 Z0.28                                   ; lift nozzle a bit 
G92 E0                                     ; zero the extruded length 
G1 Y3 F1800
G1 X60  E25 F500                           ; Extrude 25mm of filament in a 5cm line. 
G92 E0                                     ; zero the extruded length again 
G1 E-2 F500                                ; Retract a little 
G1 X70 F4000                               ; Quickly wipe away from the filament line
M117
G21 ; set units to millimeters
G90 ; use absolute coordinates
M82 ; use absolute distances for extrusion
G92 E0
; Filament gcode
M107
;LAYER_CHANGE
;Z:0.24
;HEIGHT:0.24
; BEFORE_LAYER_CHANGE 0 @ 0.24mm
G1 Z.24 F2100
; AFTER_LAYER_CHANGE 0 @ 0.24mm
G1 X47.293 Y47.293 F6000
M204 S2000
;TYPE:Skirt/Brim
;WIDTH:0.48
G1 F700.124
G1 X87.293 Y7.293 E2.78141
G1 X88.774 Y6.37 E2.86721
G1 X90.02 Y6.163 E2.92931
G1 X129.98 Y6.163 E4.89409
G1 X131.68 Y6.558 E4.9799
G1 X132.707 Y7.293 E5.042
G1 X212.707 Y87.293 E10.60481
G1 X213.63 Y88.774 E10.69061
G1 X213.837 Y90.02 E10.75271
G1 X213.837 Y129.98 E12.71749
G1 X213.442 Y131.68 E12.8033
G1 X212.707 Y132.707 E12.8654
G1 X132.707 Y212.707 E18.42821
G1 X131.226 Y213.63 E18.51401
G1 X129.98 Y213.837 E18.57611
G1 X90.02 Y213.837 E20.54089
G1 X88.32 Y213.442 E20.6267
G1 X87.293 Y212.707 E20.6888
G1 X7.293 Y132.707 E26.25161
G1 X6.37 Y131.226 E26.33741
G1 X6.163 Y129.98 E26.39951
G1 X6.163 Y90.02 E28.36429
G1 X6.558 Y88.32 E28.4501
G1 X7.293 Y87.293 E28.5122
G1 X47.25 Y47.335 E31.29065
M204 S2500
G1 X47.553 Y47.638 F6000
M204 S2000
G1 F700.124
G1 X87.596 Y7.596 E34.07501
G1 X89.003 Y6.746 E34.15583
G1 X90.02 Y6.592 E34.2064
G1 X129.98 Y6.592 E36.17118
G1 X131.576 Y6.986 E36.25201
G1 X132.404 Y7.596 E36.30258
G1 X212.404 Y87.596 E41.86539
G1 X213.254 Y89.003 E41.94621
G1 X213.408 Y90.02 E41.99678
G1 X213.408 Y129.98 E43.96156
G1 X213.014 Y131.576 E44.04239
G1 X212.404 Y132.404 E44.09296
G1 X132.404 Y212.404 E49.65577
G1 X130.997 Y213.254 E49.73659
G1 X129.98 Y213.408 E49.78716
G1 X90.02 Y213.408 E51.75194
G1 X88.424 Y213.014 E51.83277
G1 X87.596 Y212.404 E51.88334
G1 X7.596 Y132.404 E57.44615
G1 X6.746 Y130.997 E57.52697
G1 X6.592 Y129.98 E57.57754
G1 X6.592 Y90.02 E59.54232
G1 X6.986 Y88.424 E59.62315
G1 X7.596 Y87.596 E59.67372
G1 X47.511 Y47.681 E62.44922
M204 S2500
G92 E0
G1 X182.218 Y129.212 F6000
M204 S2000
;TYPE:Perimeter
;WIDTH:0.479999
G1 F700.125
G1 X170.788 Y129.212 E.562
G1 X170.788 Y111.964 E1.41006
G1 X170.764 Y110.963 E1.45929
G1 X170.709 Y110.368 E1.48867
G1 X170.629 Y110.112 E1.50186
G1 X170.437 Y110 E1.51279
G1 X170.629 Y109.888 E1.52372
G1 X170.709 Y109.632 E1.53691
G1 X170.764 Y109.037 E1.56629
G1 X170.788 Y108.036 E1.61552
G1 X170.788 Y90.788 E2.46358
G1 X209.212 Y90.788 E4.35284
G1 X209.212 Y129.212 E6.2421
G1 X182.278 Y129.212 E7.56641
M204 S2500
G92 E0
G1 X90.788 Y129.004 F6000
M204 S2000
G1 F700.125
G1 X90.788 Y111.964 E.83783
G1 X90.764 Y110.963 E.88706
G1 X90.709 Y110.368 E.91644
G1 X90.629 Y110.112 E.92963
G1 X90.437 Y110 E.94056
G1 X90.629 Y109.888 E.95149
G1 X90.709 Y109.632 E.96468
G1 X90.764 Y109.037 E.99406
G1 X90.788 Y108.036 E1.04329
G1 X90.788 Y90.788 E1.89135
G1 X108.036 Y90.788 E2.73941
G1 X109.037 Y90.764 E2.78864
G1 X109.632 Y90.709 E2.81802
G1 X109.888 Y90.629 E2.83121
G1 X110 Y90.455 E2.84138
G1 X110.112 Y90.629 E2.85155
G1 X110.368 Y90.709 E2.86474
G1 X110.963 Y90.764 E2.89412
G1 X111.964 Y90.788 E2.94335
G1 X129.212 Y90.788 E3.79141
G1 X129.212 Y108.036 E4.63947
G1 X129.236 Y109.037 E4.6887
G1 X129.291 Y109.632 E4.71808
G1 X129.371 Y109.888 E4.73127
G1 X129.545 Y110 E4.74144
G1 X129.371 Y110.112 E4.75161
G1 X129.291 Y110.368 E4.7648
G1 X129.236 Y110.963 E4.79418
G1 X129.212 Y111.964 E4.84341
G1 X129.212 Y129.212 E5.69147
G1 X111.964 Y129.212 E6.53953
G1 X110.963 Y129.236 E6.58876
G1 X110.368 Y129.291 E6.61814
G1 X110.112 Y129.371 E6.63133
G1 X110 Y129.563 E6.64226
G1 X109.888 Y129.371 E6.65319
G1 X109.632 Y129.291 E6.66638
G1 X109.037 Y129.236 E6.69576
G1 X108.02 Y129.212 E6.74578
G1 X90.788 Y129.212 E7.59306
G1 X90.788 Y129.064 E7.60034
M204 S2500
G92 E0
G1 X92.581 Y10.788 F6000
M204 S2000
G1 F700.125
G1 X129.212 Y10.788 E1.8011
G1 X129.212 Y49.212 E3.69036
G1 X111.964 Y49.212 E4.53842
G1 X110.963 Y49.236 E4.58765
G1 X110.368 Y49.291 E4.61703
G1 X110.112 Y49.371 E4.63022
G1 X110 Y49.563 E4.64115
G1 X109.888 Y49.371 E4.65208
G1 X109.632 Y49.291 E4.66527
G1 X109.037 Y49.236 E4.69465
G1 X108.036 Y49.212 E4.74388
G1 X90.788 Y49.212 E5.59194
G1 X90.788 Y10.788 E7.4812
G1 X92.521 Y10.788 E7.56641
M204 S2500
G92 E0
G1 X42.683 Y129.212 F6000
M204 S2000
G1 F700.125
G1 X10.788 Y129.212 E1.56824
G1 X10.788 Y90.788 E3.4575
G1 X49.212 Y90.788 E5.34676
G1 X49.212 Y108.036 E6.19482
G1 X49.236 Y109.037 E6.24405
G1 X49.291 Y109.632 E6.27343
G1 X49.371 Y109.888 E6.28662
G1 X49.545 Y110 E6.29679
G1 X49.371 Y110.112 E6.30696
G1 X49.291 Y110.368 E6.32015
G1 X49.236 Y110.963 E6.34953
G1 X49.212 Y111.964 E6.39876
G1 X49.212 Y129.212 E7.24682
G1 X42.743 Y129.212 E7.56489
M204 S2500
G92 E0
G1 X119.665 Y170.788 F6000
M204 S2000
G1 F700.125
G1 X129.212 Y170.788 E.46941
G1 X129.212 Y209.212 E2.35867
G1 X90.788 Y209.212 E4.24793
G1 X90.788 Y170.788 E6.13719
G1 X108.036 Y170.788 E6.98525
G1 X109.037 Y170.764 E7.03448
G1 X109.632 Y170.709 E7.06386
G1 X109.888 Y170.629 E7.07705
G1 X110 Y170.455 E7.08722
G1 X110.112 Y170.629 E7.09739
G1 X110.368 Y170.709 E7.11058
G1 X110.963 Y170.764 E7.13996
G1 X111.98 Y170.788 E7.18998
G1 X119.605 Y170.788 E7.56489
M204 S2500
G92 E0
G1 X110.408 Y170.282 F6000
M204 S2000
;TYPE:External perimeter
G1 F700.125
G1 X110.973 Y170.335 E.0279
G1 X111.98 Y170.36 E.07743
G1 X129.64 Y170.36 E.94575
G1 X129.64 Y209.64 E2.8771
G1 X90.36 Y209.64 E4.80845
G1 X90.36 Y170.36 E6.7398
G1 X108.026 Y170.36 E7.60841
G1 X109.042 Y170.334 E7.65838
G1 X109.677 Y170.256 E7.68984
G1 X109.786 Y170.069 E7.70048
G1 X109.786 Y129.931 E9.67401
G1 X109.677 Y129.744 E9.68465
G1 X109.592 Y129.718 E9.68902
G1 X109.027 Y129.665 E9.71692
G1 X108.023 Y129.64 E9.7663
G1 X90.36 Y129.64 E10.63477
G1 X90.36 Y111.977 E11.50324
G1 X90.334 Y110.958 E11.55336
G1 X90.256 Y110.323 E11.58482
G1 X90.069 Y110.214 E11.59546
G1 X49.931 Y110.214 E13.56899
G1 X49.744 Y110.323 E13.57963
G1 X49.718 Y110.408 E13.584
G1 X49.665 Y110.973 E13.6119
G1 X49.64 Y111.974 E13.66113
G1 X49.64 Y129.64 E14.52974
G1 X10.36 Y129.64 E16.46109
G1 X10.36 Y90.36 E18.39244
G1 X49.64 Y90.36 E20.32379
G1 X49.64 Y108.026 E21.1924
G1 X49.666 Y109.042 E21.24237
G1 X49.744 Y109.677 E21.27383
G1 X49.931 Y109.786 E21.28447
G1 X90.069 Y109.786 E23.258
G1 X90.256 Y109.677 E23.26864
G1 X90.282 Y109.592 E23.27301
G1 X90.335 Y109.027 E23.30091
G1 X90.36 Y108.023 E23.35029
G1 X90.36 Y90.36 E24.21876
G1 X108.023 Y90.36 E25.08723
G1 X109.042 Y90.334 E25.13735
G1 X109.677 Y90.256 E25.16881
G1 X109.786 Y90.069 E25.17945
G1 X109.786 Y49.931 E27.15298
G1 X109.677 Y49.744 E27.16362
G1 X109.592 Y49.718 E27.16799
G1 X109.027 Y49.665 E27.19589
G1 X108.026 Y49.64 E27.24512
G1 X90.36 Y49.64 E28.11373
G1 X90.36 Y10.36 E30.04508
G1 X129.64 Y10.36 E31.97643
G1 X129.64 Y49.64 E33.90778
G1 X111.974 Y49.64 E34.77639
G1 X110.958 Y49.666 E34.82636
G1 X110.323 Y49.744 E34.85782
G1 X110.214 Y49.931 E34.86846
G1 X110.214 Y90.069 E36.84199
G1 X110.323 Y90.256 E36.85263
G1 X110.408 Y90.282 E36.857
G1 X110.973 Y90.335 E36.8849
G1 X111.977 Y90.36 E36.93428
G1 X129.64 Y90.36 E37.80275
G1 X129.64 Y108.023 E38.67122
G1 X129.666 Y109.042 E38.72134
G1 X129.744 Y109.677 E38.7528
G1 X129.931 Y109.786 E38.76344
G1 X170.069 Y109.786 E40.73697
G1 X170.256 Y109.677 E40.74761
G1 X170.282 Y109.592 E40.75198
G1 X170.335 Y109.027 E40.77988
G1 X170.36 Y108.026 E40.82911
G1 X170.36 Y90.36 E41.69772
G1 X209.64 Y90.36 E43.62907
G1 X209.64 Y129.64 E45.56042
G1 X170.36 Y129.64 E47.49177
G1 X170.36 Y111.974 E48.36038
G1 X170.334 Y110.958 E48.41035
G1 X170.256 Y110.323 E48.44181
G1 X170.069 Y110.214 E48.45245
G1 X129.931 Y110.214 E50.42598
G1 X129.744 Y110.323 E50.43662
G1 X129.718 Y110.408 E50.44099
G1 X129.665 Y110.973 E50.46889
G1 X129.64 Y111.977 E50.51827
G1 X129.64 Y129.64 E51.38674
G1 X111.977 Y129.64 E52.25521
G1 X110.958 Y129.666 E52.30533
G1 X110.323 Y129.744 E52.33679
G1 X110.214 Y129.931 E52.34743
G1 X110.214 Y170.069 E54.32096
G1 X110.323 Y170.256 E54.3316
G1 X110.351 Y170.264 E54.33303
M204 S2500
G1 X110.482 Y170.676 F6000
G1 X110.006 Y170.97
M204 S2000
;TYPE:Solid infill
G1 F700.125
G1 X109.663 Y171.072 E54.35062
G1 X109.076 Y171.126 E54.3796
G1 X108.019 Y171.152 E54.43159
G1 X91.153 Y171.153 E55.26087
G1 X91.153 Y208.847 E57.11424
G1 X128.847 Y208.847 E58.96761
G1 X128.847 Y171.153 E60.82098
G1 X111.981 Y171.152 E61.65026
G1 X110.935 Y171.127 E61.70171
G1 X110.337 Y171.072 E61.73124
G1 X110.063 Y170.988 E61.74533
M204 S2500
G1 X110.003 Y171.42 F6000
M204 S2000
G1 F700.125
G1 X109.703 Y171.499 E61.76058
G1 X109.115 Y171.553 E61.78961
G1 X108.019 Y171.581 E61.84352
G1 X91.581 Y171.581 E62.65176
G1 X91.581 Y208.419 E64.46304
G1 X128.419 Y208.419 E66.27432
G1 X128.419 Y171.581 E68.0856
G1 X111.981 Y171.581 E68.89384
G1 X110.924 Y171.555 E68.94583
G1 X110.297 Y171.499 E68.97678
G1 X110.061 Y171.435 E68.9888
M204 S2500
G1 X109.961 Y171.882 F6000
M204 S2000
G1 F700.125
G1 X109.159 Y171.979 E69.02852
G1 X108.019 Y172.009 E69.08459
G1 X92.01 Y172.01 E69.87173
G1 X92.01 Y207.99 E71.64082
G1 X127.99 Y207.99 E73.40991
G1 X127.99 Y172.01 E75.179
G1 X111.981 Y172.009 E75.96614
G1 X110.914 Y171.984 E76.01862
G1 X110.02 Y171.89 E76.06282
M204 S2500
G1 X109.931 Y172.33 F6000
M204 S2000
G1 F700.125
G1 X109.097 Y172.412 E76.10402
G1 X108.019 Y172.438 E76.15704
G1 X92.438 Y172.438 E76.92314
G1 X92.438 Y207.562 E78.65014
G1 X127.562 Y207.562 E80.37714
G1 X127.562 Y172.438 E82.10414
G1 X111.981 Y172.438 E82.87024
G1 X110.903 Y172.412 E82.92326
G1 X109.991 Y172.335 E82.96826
M204 S2500
G1 X109.821 Y172.779 F6000
M204 S2000
G1 F700.125
G1 X109.107 Y172.84 E83.00349
G1 X108.019 Y172.866 E83.057
G1 X92.867 Y172.867 E83.802
G1 X92.867 Y207.133 E85.48682
G1 X127.133 Y207.133 E87.17164
G1 X127.133 Y172.867 E88.85646
G1 X111.981 Y172.866 E89.60146
G1 X110.893 Y172.84 E89.65497
G1 X110.179 Y172.779 E89.6902
G1 X109.881 Y172.779 E89.70485
M204 S2500
G1 X110.139 Y173.205 F6000
M204 S2000
G1 F700.125
G1 X109.117 Y173.269 E89.7552
G1 X108.02 Y173.295 E89.80915
G1 X93.295 Y173.295 E90.53316
G1 X93.295 Y206.705 E92.17589
G1 X126.705 Y206.705 E93.81862
G1 X126.705 Y173.295 E95.46135
G1 X111.981 Y173.295 E96.18531
G1 X110.883 Y173.269 E96.23931
G1 X110.199 Y173.21 E96.27307
M204 S2500
G1 X110.099 Y173.632 F6000
M204 S2000
G1 F700.125
G1 X109.128 Y173.697 E96.32092
G1 X108.02 Y173.723 E96.37541
G1 X93.724 Y173.724 E97.07833
G1 X93.724 Y206.276 E98.67887
G1 X126.276 Y206.276 E100.27941
G1 X126.276 Y173.724 E101.87995
G1 X111.98 Y173.723 E102.58287
G1 X110.872 Y173.697 E102.63736
G1 X110.159 Y173.637 E102.67254
M204 S2500
G1 X110.06 Y174.059 F6000
M204 S2000
G1 F700.125
G1 X109.138 Y174.126 E102.71799
G1 X108.02 Y174.152 E102.77298
G1 X94.152 Y174.152 E103.45485
G1 X94.152 Y205.848 E105.0133
G1 X125.848 Y205.848 E106.57175
G1 X125.848 Y174.152 E108.1302
G1 X111.98 Y174.152 E108.81207
G1 X110.862 Y174.126 E108.86706
G1 X110.119 Y174.064 E108.90372
M204 S2500
G1 X110.02 Y174.485 F6000
M204 S2000
G1 F700.125
G1 X109.149 Y174.554 E108.94668
G1 X108.02 Y174.58 E109.00221
G1 X94.581 Y174.581 E109.66299
G1 X94.581 Y205.419 E111.17925
G1 X125.419 Y205.419 E112.69551
G1 X125.419 Y174.581 E114.21177
G1 X111.98 Y174.58 E114.87255
G1 X110.851 Y174.554 E114.92808
G1 X110.08 Y174.49 E114.96612
M204 S2500
G1 X110 Y174.914 F6000
M204 S2000
G1 F700.125
G1 X109.159 Y174.982 E115.00761
G1 X108.02 Y175.009 E115.06363
G1 X95.009 Y175.009 E115.70336
G1 X95.009 Y204.991 E117.17754
G1 X124.991 Y204.991 E118.65172
G1 X124.991 Y175.009 E120.1259
G1 X111.98 Y175.009 E120.76563
G1 X110.841 Y174.982 E120.82165
G1 X110.06 Y174.919 E120.86018
M204 S2500
G1 X110 Y175.344 F6000
M204 S2000
G1 F700.125
G1 X109.17 Y175.411 E120.90112
G1 X108.02 Y175.437 E120.95768
G1 X95.438 Y175.438 E121.57632
G1 X95.438 Y204.562 E123.00831
G1 X124.562 Y204.562 E124.4403
G1 X124.562 Y175.438 E125.87229
G1 X111.98 Y175.437 E126.49093
G1 X110.83 Y175.411 E126.54749
G1 X110.06 Y175.349 E126.58547
M204 S2500
G1 X110 Y175.774 F6000
M204 S2000
G1 F700.125
G1 X109.18 Y175.839 E126.62591
G1 X108.02 Y175.866 E126.68296
G1 X95.866 Y175.866 E127.28056
G1 X95.866 Y204.134 E128.67046
G1 X124.134 Y204.134 E130.06036
G1 X124.134 Y175.866 E131.45026
G1 X111.98 Y175.866 E132.04786
G1 X110.82 Y175.839 E132.10491
G1 X110.06 Y175.779 E132.14239
M204 S2500
G1 X110 Y176.205 F6000
M204 S2000
G1 F700.125
G1 X109.191 Y176.267 E132.18228
G1 X108.02 Y176.294 E132.23987
G1 X96.295 Y176.295 E132.81637
G1 X96.295 Y203.705 E134.16408
G1 X123.705 Y203.705 E135.51179
G1 X123.705 Y176.295 E136.8595
G1 X111.98 Y176.294 E137.436
G1 X110.809 Y176.267 E137.49359
G1 X110.06 Y176.209 E137.53053
M204 S2500
G1 X110 Y176.635 F6000
M204 S2000
G1 F700.125
G1 X109.201 Y176.696 E137.56993
G1 X108.02 Y176.723 E137.62801
G1 X96.723 Y176.723 E138.18347
G1 X96.723 Y203.277 E139.4891
G1 X123.277 Y203.277 E140.79473
G1 X123.277 Y176.723 E142.10036
G1 X111.98 Y176.723 E142.65582
G1 X110.799 Y176.696 E142.7139
G1 X110.06 Y176.64 E142.75034
M204 S2500
G1 X110 Y177.065 F6000
M204 S2000
G1 F700.125
G1 X109.212 Y177.124 E142.78919
G1 X108.02 Y177.151 E142.84781
G1 X97.152 Y177.152 E143.38218
G1 X97.152 Y202.848 E144.64562
G1 X122.848 Y202.848 E145.90906
G1 X122.848 Y177.152 E147.1725
G1 X111.98 Y177.151 E147.70687
G1 X110.788 Y177.124 E147.76549
G1 X110.06 Y177.07 E147.80138
M204 S2500
G1 X110 Y177.496 F6000
M204 S2000
G1 F700.125
G1 X109.222 Y177.553 E147.83974
G1 X108.02 Y177.58 E147.89886
G1 X97.58 Y177.58 E148.41218
G1 X97.58 Y202.42 E149.63353
G1 X122.42 Y202.42 E150.85488
G1 X122.42 Y177.58 E152.07623
G1 X111.98 Y177.58 E152.58955
G1 X110.778 Y177.553 E152.64867
G1 X110.06 Y177.5 E152.68407
M204 S2500
G1 X110 Y177.926 F6000
M204 S2000
G1 F700.125
G1 X109.232 Y177.981 E152.72193
G1 X108.02 Y178.008 E152.78154
G1 X98.009 Y178.009 E153.27377
G1 X98.009 Y201.991 E154.45293
G1 X121.991 Y201.991 E155.63209
G1 X121.991 Y178.009 E156.81125
G1 X111.98 Y178.008 E157.30348
G1 X110.768 Y177.981 E157.36309
G1 X110.06 Y177.93 E157.39799
M204 S2500
G1 X110.246 Y178.379 F6000
M204 S2000
G1 F700.125
G1 X108.02 Y178.437 E157.50748
G1 X98.437 Y178.437 E157.97866
G1 X98.437 Y201.563 E159.11574
G1 X121.563 Y201.563 E160.25282
G1 X121.563 Y178.437 E161.3899
G1 X111.98 Y178.437 E161.86108
G1 X110.306 Y178.383 E161.94343
M204 S2500
G1 X110.207 Y178.806 F6000
M204 S2000
G1 F700.125
G1 X108.02 Y178.865 E162.051
G1 X98.866 Y178.865 E162.50109
G1 X98.866 Y201.134 E163.59603
G1 X121.134 Y201.134 E164.69092
G1 X121.134 Y178.865 E165.78586
G1 X111.98 Y178.865 E166.23595
G1 X110.747 Y178.838 E166.29659
G1 X110.267 Y178.81 E166.32023
M204 S2500
G1 X110.22 Y179.237 F6000
M204 S2000
G1 F700.125
G1 X108.02 Y179.294 E166.42844
G1 X99.294 Y179.294 E166.85749
G1 X99.294 Y200.706 E167.91029
G1 X120.706 Y200.706 E168.96309
G1 X120.706 Y179.294 E170.01589
G1 X111.98 Y179.294 E170.44494
G1 X110.28 Y179.241 E170.52857
M204 S2500
G1 X110.183 Y179.664 F6000
M204 S2000
G1 F700.125
G1 X108.02 Y179.722 E170.63496
